Themes/OneUI/assets/svg/ic_expression_emoji.svg

<svg width="20" height="20" viewBox="0 0 20 20" fill="none" xmlns="http://www.w3.org/2000/svg">
<g clip-path="url(#clip0_1_1294)">
<path d="M20 10C20 4.4764 15.523 0 10 0C4.477 0 0 4.4764 0 10C0 15.523 4.477 20 10 20C15.523 20 20 15.523 20 10Z" fill="#FFBB22"/>
<path d="M14.3502 12.097C14.3502 13.8451 12.727 15.52 10.0004 15.52C8.0699 15.52 5.6499 14.6412 5.6499 12.097H14.3502Z" fill="black"/>
<path d="M6.431 8.88988C7.1096 8.88988 7.66 8.33948 7.66 7.66208C7.66 6.98208 7.1096 6.43408 6.431 6.43408C5.7534 6.43408 5.206 6.98208 5.206 7.66208C5.206 8.33948 5.7534 8.88988 6.431 8.88988Z" fill="black"/>
<path d="M13.513 8.88988C14.1915 8.88988 14.742 8.33948 14.742 7.66208C14.742 6.98208 14.1915 6.43408 13.513 6.43408C12.8354 6.43408 12.2879 6.98208 12.2879 7.66208C12.2879 8.33948 12.8354 8.88988 13.513 8.88988Z" fill="black"/>
</g>
<defs>
<clipPath id="clip0_1_1294">
<rect width="20" height="20" fill="white"/>
</clipPath>
</defs>
</svg>

<?xml version="1.0" encoding="UTF-8" standalone="no"?>
<svg
   width="20"
   height="20"
   viewBox="0 0 20 20"
   fill="none"
   version="1.1"
   id="svg834"
   sodipodi:docname="ic_expression_emoji.svg"
   xmlns:inkscape="http://www.inkscape.org/namespaces/inkscape"
   xmlns:sodipodi="http://sodipodi.sourceforge.net/DTD/sodipodi-0.dtd"
   xmlns="http://www.w3.org/2000/svg"
   xmlns:svg="http://www.w3.org/2000/svg">
  <sodipodi:namedview
     id="namedview836"
     pagecolor="#ffffff"
     bordercolor="#666666"
     borderopacity="1.0"
     inkscape:showpageshadow="2"
     inkscape:pageopacity="0.0"
     inkscape:pagecheckerboard="0"
     inkscape:deskcolor="#d1d1d1" />
  <g
     clip-path="url(#clip0_1_1294)"
     id="g827">
    <path
       d="M 20,10 C 20,4.4764 15.523,0 10,0 4.477,0 0,4.4764 0,10 c 0,5.523 4.477,10 10,10 5.523,0 10,-4.477 10,-10 z"
       fill="#ffbb22"
       id="path819" />
    <path
       d="m 14.3502,12.097 c 0,1.7481 -1.6232,3.423 -4.3498,3.423 -1.9305,0 -4.3505,-0.8788 -4.3505,-3.423 z"
       fill="#000000"
       id="path821" />
    <path
       d="m 6.431,8.88988 c 0.6786,0 1.229,-0.5504 1.229,-1.2278 0,-0.68 -0.5504,-1.228 -1.229,-1.228 -0.6776,0 -1.225,0.548 -1.225,1.228 0,0.6774 0.5474,1.2278 1.225,1.2278 z"
       fill="#000000"
       id="path823" />
    <path
       d="m 13.513,8.88988 c 0.6785,0 1.229,-0.5504 1.229,-1.2278 0,-0.68 -0.5505,-1.228 -1.229,-1.228 -0.6776,0 -1.2251,0.548 -1.2251,1.228 0,0.6774 0.5475,1.2278 1.2251,1.2278 z"
       fill="#000000"
       id="path825" />
  </g>
  <defs
     id="defs832">
    <clipPath
       id="clip0_1_1294">
      <rect
         width="20"
         height="20"
         fill="#ffffff"
         id="rect829"
         x="0"
         y="0" />
    </clipPath>
  </defs>
</svg>
